!!!!SEGMENT: pl-wnifc--13846--001-006_anonim--piesni-polskie-i-ruskie-ludu-galicyjskiego-6-a-czemu-ty-nie-tancujesz.krn
!!!kernsource:
!!!cenid: 18xx:3228
!!!COM: Anonim
!!!COM-rismID: pe30004985
!!!CDT:
!!!CNT:
!!!GTL: Pieśni polskie i ruskie ludu galicyjskiego
!!!OTL: 6. A czemu ty nie tańcujesz
!!!OMV: 006
!!!PDT: 1833
!!!AGN:
!!!YEC: Copyright 2022 Narodowy Instytut Fryderyka Chopina (https://polishscores.org)
!!!YEM: License CC-BY-4.0 (https://creativecommons.org/licenses/by/4.0)
!!!SMS-siglum: PL-Wnifc
!!!SMS-shelfmark: 13846
!!!SMS-shelfwork: 001-006 G
!!!NIFC-rismSourceID: 1001036701
!!!NIFC-rismChildID: 1001036723
!!!NIFC-islandoraID: nifc:210326
!!!URL-pdf-islandora: https://repozytorium.nifc.pl/islandora/object/nifc%3A210326/datastream/PDF/view
!!!URL-scan:
!!!IIIF:
!!!ONB-nifc:
!!!OMD: Andante con moto.
!!!AIN: 2 empty
!!!key:
**kern	**kern	**kern	**text
*part2	*part2	*part1	*
*staff3	*staff2	*staff1	*
*Iempty	*Iempty	*Iempty	*
*I"	*I"	*I"	*
*clefF4	*clefG2	*clefG2	*
*k[f#c#]	*k[f#c#]	*k[f#c#]	*
*D:	*D:	*D:	*
*M2/4	*M2/4	*M2/4	*
=1-	=1-	=1-	=1-
!LO:N:vis=2	!	!	!
8DDL/	8ff#\L 8dd\	8ff#\	A
8D\	8aa\J 8ff#\	8aa\	cze-
8D\	8aa\L 8ff#\	8aa\	-mu
8D\J	(16gg\L 16ee\	(16gg\LL	ty
.	16ff#\JJ 16dd\)	16ff#\JJ)	.
=2	=2	=2	=2
!LO:N:vis=2	!	!	!
8DDL/	8ff#\L 8dd\	8ff#\	nie
8D\	8aa\J 8ff#\	8aa\	tań-
8D\	8aa\L 8ff#\	8aa\	-cu-
8D\J	(16gg\L 16ee\	(16gg\LL	-jesz
.	16ff#\JJ 16dd\)	16ff#\JJ)	.
!!LO:LB:g=original
=3	=3	=3	=3
8DD/L	4ff#\ 4dd\	4ff#\	ha-
8D\	.	.	.
8AA/	8ee\L 8cc#\	8ee\	-lu
8A\J	8ee\J 8cc#\	8ee\	ha-
=4	=4	=4	=4
*	*^	*	*
8D\L	4dd/	4dd\	4dd\	-lu!
8d\	.	.	.	.
8A\	4r	4ryy	4r	.
8F#\J	.	.	.	.
*	*v	*v	*	*
=5	=5	=5	=5
*^	*	*	*
8D/	8D\ 8DD\	8ff#\L 8dd\	8ff#\	kie-
8d/L 8D/	8ryy	8aa\J 8ff#\	8aa\	-dy
8d/ 8D/	8ryy	8aa\L 8ff#\	8aa\L	ja
8d/J 8D/	8ryy	(16gg\L 16ee\	(16gg\L	nie
.	.	16ff#\JJ 16dd\)	16ff#\JJ)	.
*v	*v	*	*	*
!!LO:PB:g=original
=6	=6	=6	=6
8D/ 8DD/	8ff#\L 8dd\	8ff#\	mam
8d\L 8D\	8aa\J 8ff#\	8aa\	trze-
8d\ 8D\	8aa\L 8ff#\	8aa\	-wi-
8d\J 8D\	(16gg\L 16ee\	(16gg\LL	-ków
.	16ff#\JJ 16dd\)	16ff#\JJ)	.
=7	=7	=7	=7
8D\L	4ff#\ 4dd\	4ff#\	ka-
8F#\	.	.	.
!LO:TX:t=P:problem=mixed beam	!LO:SIC:o:t:v=Widać zarys belki szesnastkowej, ale wytarty.	!	!
8A\	8ee\L 8cc#\	8ee\	-wa-
8AA/J	8ee\J 8cc#\	8ee\	-le-
=8	=8	=8	=8
*	*^	*	*
8D\L	4dd/	4dd\	4.dd\	-ru!
8d\	.	.	.	.
8A\	8ryy	4ryy	.	.
8F#\J	8r	.	8r	.
*	*v	*v	*	*
!!LO:LB:g=original
==9	==9	==9	==9
8D\L	8ff#\L 8dd\	8ff#\	Oj
8A\	8ff#\ 8dd\	8ff#\	ku-
8AA/	8ff#\ 8dd\	8ff#\	-pię
8A\J	8ee\J 8cc#\	8ee\	ja
=10	=10	=10	=10
8D\L	8ff#\L 8dd\	8ff#\	ci
8A\	8aa\ 8ff#\	8aa\	trze-
8AA/	8aa\ 8ff#\	8aa\	-wicz-
8A\J	8gg\J 8ee\	8gg\	-ki
=11	=11	=11	=11
8D\L	4ff#\ 4dd\	4ff#\	ha-
8A\	.	.	.
8AA/	8ee\ 8cc#\	8ee\	-lu
8A\J	8ee\ 8cc#\	8ee\	ha-
!!LO:LB:g=original
=12	=12	=12	=12
!LO:N:vis=2	!	!	!
8DD/L	4aa\ 4ff#\	4aa\	-lu
8D\	.	.	.
8D\	4r	4r	.
8D\J	.	.	.
=13	=13	=13	=13
8D\L	8ff#\L 8dd\'	8ff#\	a
8A\	8ff#\J 8dd\'	8ff#\	ja
8AA/	(16gg\LL 16ee\'	(16gg\LL	to-
.	16ff#\ 16dd\')	16ff#\JJ)	.
8A\J	(16ee\ 16cc#\	(16ee\LL	bie
.	16dd\JJ)	16dd\JJ)	.
=14	=14	=14	=14
8D\L	8ff#\L 8dd\	8ff#\	po-
8A\	8aa\ 8ff#\	8aa\	-dzię-
8AA/	8aa\ 8ff#\	8aa\	-ku-
8A\J	8gg\J 8ee\	8gg\	-ję
!!LO:LB:g=original
=15	=15	=15	=15
8D\L	4ff#\ 4dd\	4ff#\	ka-
8A\	.	.	.
8AA/	8ee\L 8cc#\	8ee\	-wa-
8A\J	8ee\J 8cc#\	8ee\	-le-
=16	=16	=16	=16
4D\	4dd\	4dd\	-ru
4r	4r	4r	.
==	==	==	==
*-	*-	*-	*-
!!!system-decoration: s1,[(s2,s3)]
!!!ENC: Leszek Kubiak
!!!END: 2021-11-09
